X: 18
T: Merry Blacksmith, The
Z: JACKB
S: https://thesession.org/tunes/72#setting50256
R: reel
M: 4/4
L: 1/8
K: Dmaj
|:A2|d_edA BAFB|ABdA BAFA|ABde fded|Bee_e egfe|
d3 A BAFB|ABdA BAFB|ABde fdec|dBAG FA D2:|
|:f|a3 g f3 e|d_edA BAFA|DFAd fded|Bee_e efge|
a3 g f3e|d2 dA {c}BAFA|ABde fdec|dBAG FA D2:|

